X:216
T:Newmarket.  (p)1675.PLFD1.216
M:4/4
L:1/4
Q:1/2=100
S:Playford, Dancing Master,5th Ed.,1675.
O:England;London
H:1675.
Z:Chris Partington.
K:C
g2ed/c/|B2G>F|E/F/GcG|A2z/e/f/g/|a2g/a/g/e/|
d2G2|c/B/c/d/d>c|c3z/f/|e>dea|g>fe(f/e/)|
dcde|A2c2|(GE)(DC)|FAAB/c/|d/e/d/B/AG|
f3g|ed/c/BA|d2FE|c/B/c/d/d>c|c4:|
M:6/4
L:1/4
Q:3/4=120
|:e3"^The Second Part"g3|c>BcdBG|A>BAc2F|E2FG2e|
f3e3|d>cdecA|B2cdcB|1c6:|2c3-c2|
|:A/B/|c>dcGA_B|A>GAF>ED|f3A>Bc|B3-B2G|
(EG)cAF>E|(FA)dB2G|ec2c2B|1c3-c2:|2c6|]
